svg/usb_port.svg

<svg xmlns="http://www.w3.org/2000/svg" viewBox="0 0 24 24"><path d="M8 2c-1.1 0-2 .9-2 2v8H5v4l4 4v2h6v-2l4-4v-4h-1V4a2 2 0 0 0-2-2M8 4h8v8H8m1-5v2h2V7m2 0v2h2V7Z"/></svg>

<?xml version="1.0" encoding="UTF-8"?><!DOCTYPE svg PUBLIC "-//W3C//DTD SVG 1.1//EN" "http://www.w3.org/Graphics/SVG/1.1/DTD/svg11.dtd"><svg xmlns="http://www.w3.org/2000/svg" xmlns:xlink="http://www.w3.org/1999/xlink" version="1.1" id="mdi-usb-port" width="24" height="24" viewBox="0 0 24 24"><path d="M8 2C6.9 2 6 2.9 6 4V12H5V16L9 20V22H15V20L19 16V12H18V4C18 2.9 17.11 2 16 2M8 4H16V12H8M9 7V9H11V7M13 7V9H15V7Z" /></svg>
